X: 1482
T: Gervasoni Set Tune No 2
B: australian traditional tunes wiki
M:2/4
L:1/8
R: Set Tune
Q: 1/4=100
K:Gmaj
V:1 
"G"G3-G/2A/2||Bd "D7"cA|"G"BG EF/2E/2|DB "D7"cB|A3d|"C"ee ce/2c/2|"G"dd Bd|"C" ed cB|"D7"AG FE|
"G"D/2G/2B c (3B/2d/2B/2|GB3|D/2G/2B/2D/2 cB|"D7"A4|E/2F/2A/2E/2 cB|AA2F/2E/2|DD EF|"G"G2G2||
% abcbook-tune_id 6342d53a7fd74c280860001a


% abcbook-boost 0
% abcbook-tablature 
% abcbook-transpose 
% abcbook-lastupdated 1665324367265
% abcbook-soundfonts 
% abcbook-repeats 1
% NFF Book 2014

